X:1
T:Mary Had A Little Lamb
Z:Tinashe Nyamukapa
%%score { 1 | 2 }
L:1/4
M:4/4
I:linebreak $
K:C
V:1 treble nm="Piano" snm="Pno."
V:2 bass 
V:1
 E D C D | E E E2 | D D D2 | E G G2 | E D C D | E E E E | D D E D | C4 |] %8
V:2
 C, G, E, G, | C, G, E, G, | D, G, F, G, | C, G, E, G, | C, G, E, G, | C, G, E, G, | D, G, F, G, | %7
 C, G, E, G, |] %8
